libs/redbear-ble-nano/boardhd.svg

<?xml version="1.0" encoding="UTF-8" standalone="no"?>
<svg
   xmlns:dc="http://purl.org/dc/elements/1.1/"
   xmlns:cc="http://creativecommons.org/ns#"
   xmlns:rdf="http://www.w3.org/1999/02/22-rdf-syntax-ns#"
   xmlns:svg="http://www.w3.org/2000/svg"
   xmlns="http://www.w3.org/2000/svg"
   xmlns:sodipodi="http://sodipodi.sourceforge.net/DTD/sodipodi-0.dtd"
   xmlns:inkscape="http://www.inkscape.org/namespaces/inkscape"
   viewBox="0 0 55 47"
   fill-rule="evenodd"
   clip-rule="evenodd"
   stroke-linejoin="round"
   stroke-miterlimit="1.414"
   version="1.1"
   id="svg5232"
   sodipodi:docname="boardhd.svg"
   inkscape:version="0.92.1 r15371">
  <metadata
     id="metadata5238">
    <rdf:RDF>
      <cc:Work
         rdf:about="">
        <dc:format>image/svg+xml</dc:format>
        <dc:type
           rdf:resource="http://purl.org/dc/dcmitype/StillImage" />
      </cc:Work>
    </rdf:RDF>
  </metadata>
  <defs
     id="defs5236" />
  <sodipodi:namedview
     pagecolor="#ffffff"
     bordercolor="#666666"
     borderopacity="1"
     objecttolerance="10"
     gridtolerance="10"
     guidetolerance="10"
     inkscape:pageopacity="0"
     inkscape:pageshadow="2"
     inkscape:window-width="955"
     inkscape:window-height="828"
     id="namedview5234"
     showgrid="false"
     inkscape:zoom="12.331665"
     inkscape:cx="46.552896"
     inkscape:cy="22.105932"
     inkscape:window-x="-7"
     inkscape:window-y="0"
     inkscape:window-maximized="0"
     inkscape:current-layer="svg5232" />
  <path
     d="M52.63 0A2.361 2.361 0 0 1 55 2.35v42.3A2.361 2.361 0 0 1 52.63 47H2.37A2.361 2.361 0 0 1 0 44.65V2.35A2.361 2.361 0 0 1 2.37 0h50.26zM40.608 42.321c.665 0 1.205.553 1.205 1.234 0 .681-.54 1.234-1.205 1.234-.666 0-1.206-.553-1.206-1.234 0-.681.54-1.234 1.206-1.234zm-6.783 0c.666 0 1.206.553 1.206 1.234 0 .681-.54 1.234-1.206 1.234-.665 0-1.205-.553-1.205-1.234 0-.681.54-1.234 1.205-1.234zm-6.782 0c.665 0 1.206.553 1.206 1.234 0 .681-.541 1.234-1.206 1.234-.666 0-1.206-.553-1.206-1.234 0-.681.54-1.234 1.206-1.234zm-6.783 0c.666 0 1.206.553 1.206 1.234 0 .681-.54 1.234-1.206 1.234-.665 0-1.205-.553-1.205-1.234 0-.681.54-1.234 1.205-1.234zm-6.782 0c.665 0 1.206.553 1.206 1.234 0 .681-.541 1.234-1.206 1.234-.665 0-1.206-.553-1.206-1.234 0-.681.541-1.234 1.206-1.234zm33.912-.078c.666 0 1.206.553 1.206 1.235 0 .681-.54 1.234-1.206 1.234-.665 0-1.205-.553-1.205-1.234 0-.682.54-1.235 1.205-1.235zM40.725 2.085c.665 0 1.205.553 1.205 1.234 0 .681-.54 1.234-1.205 1.234-.666 0-1.206-.553-1.206-1.234 0-.681.54-1.234 1.206-1.234zm-6.783 0c.666 0 1.206.553 1.206 1.234 0 .681-.54 1.234-1.206 1.234-.665 0-1.205-.553-1.205-1.234 0-.681.54-1.234 1.205-1.234zm-6.782 0c.665 0 1.205.553 1.205 1.234 0 .681-.54 1.234-1.205 1.234-.666 0-1.206-.553-1.206-1.234 0-.681.54-1.234 1.206-1.234zm-6.783 0c.666 0 1.206.553 1.206 1.234 0 .681-.54 1.234-1.206 1.234-.665 0-1.205-.553-1.205-1.234 0-.681.54-1.234 1.205-1.234zm-6.782 0c.665 0 1.206.553 1.206 1.234 0 .681-.541 1.234-1.206 1.234-.665 0-1.206-.553-1.206-1.234 0-.681.541-1.234 1.206-1.234zm33.912-.078c.666 0 1.206.553 1.206 1.234 0 .682-.54 1.235-1.206 1.235-.665 0-1.205-.553-1.205-1.235 0-.681.54-1.234 1.205-1.234z"
     fill="#e52824"
     id="path5198" />
  <path
     fill="#c11a12"
     d="M0 10.134h48.091v26.733H0z"
     id="path5200" />
  <path
     fill="#fdfdfd"
     d="M6.78 12.472h38.958v22.233H6.78zM1.385 15.438h4.178v19.023H1.385z"
     id="path5202" />
  <path
     fill="#ffcfae"
     d="M1.385 16.87h4.178v4.6H1.385z"
     id="path5204" />
  <g
     fill="#fdfdfd"
     id="g5208">
    <path
       d="M40.721 9.348h1.239v1.381h-1.239zM38.896 9.348h1.239v1.381h-1.239zM37.07 9.348h1.239v1.381H37.07zM35.244 9.348h1.239v1.381h-1.239zM33.419 9.348h1.239v1.381h-1.239zM31.593 9.348h1.239v1.381h-1.239zM29.768 9.348h1.239v1.381h-1.239zM27.942 9.348h1.239v1.381h-1.239zM26.116 9.348h1.239v1.381h-1.239zM24.291 9.348h1.239v1.381h-1.239zM22.465 9.348h1.239v1.381h-1.239zM20.64 9.348h1.239v1.381H20.64zM18.814 9.348h1.239v1.381h-1.239zM16.989 9.348h1.239v1.381h-1.239zM15.163 9.348h1.239v1.381h-1.239zM13.337 9.348h1.239v1.381h-1.239zM11.512 9.348h1.239v1.381h-1.239zM44.372 9.348h1.239v1.381h-1.239zM42.547 9.348h1.239v1.381h-1.239z"
       id="path5206" />
  </g>
  <g
     fill="#fdfdfd"
     id="g5212">
    <path
       d="M40.721 36.105h1.239v1.381h-1.239zM38.896 36.105h1.239v1.381h-1.239zM37.07 36.105h1.239v1.381H37.07zM35.244 36.105h1.239v1.381h-1.239zM33.419 36.105h1.239v1.381h-1.239zM31.593 36.105h1.239v1.381h-1.239zM29.768 36.105h1.239v1.381h-1.239zM27.942 36.105h1.239v1.381h-1.239zM26.116 36.105h1.239v1.381h-1.239zM24.291 36.105h1.239v1.381h-1.239zM22.465 36.105h1.239v1.381h-1.239zM20.64 36.105h1.239v1.381H20.64zM18.814 36.105h1.239v1.381h-1.239zM16.989 36.105h1.239v1.381h-1.239zM15.163 36.105h1.239v1.381h-1.239zM13.337 36.105h1.239v1.381h-1.239zM11.512 36.105h1.239v1.381h-1.239zM44.372 36.105h1.239v1.381h-1.239zM42.547 36.105h1.239v1.381h-1.239z"
       id="path5210" />
  </g>
  <g
     fill="#fdfdfd"
     id="g5216">
    <path
       d="M47.304 15.586v1.239h1.382v-1.239h-1.382zM47.304 17.411v1.239h1.382v-1.239h-1.382zM47.304 19.237v1.239h1.382v-1.239h-1.382zM47.304 21.063v1.239h1.382v-1.239h-1.382zM47.304 22.888v1.239h1.382v-1.239h-1.382zM47.304 24.714v1.239h1.382v-1.239h-1.382zM47.304 26.539v1.239h1.382v-1.239h-1.382zM47.304 28.365v1.239h1.382v-1.239h-1.382zM47.304 30.19v1.239h1.382V30.19h-1.382zM47.304 32.016v1.239h1.382v-1.239h-1.382zM47.304 33.842v1.239h1.382v-1.239h-1.382zM47.304 11.935v1.239h1.382v-1.239h-1.382zM47.304 13.76v1.239h1.382V13.76h-1.382z"
       id="path5214" />
  </g>
  <path
     fill="#c11a12"
     d="M50.649 6.332h1.549v3.849h-1.549z"
     id="path5218" />
  <path
     d="M52.093 7.088v2.336a.171.171 0 0 1-.171.172h-.997a.172.172 0 0 1-.171-.172V7.088c0-.094.077-.171.171-.171h.997c.094 0 .171.077.171.171z"
     fill="#dcdcdc"
     fill-rule="nonzero"
     id="LED"
     inkscape:label="#path5220" />
  <path
     style="fill:#d0d0d0"
     d="M 20.325,1.08 A 2.162,2.162 0 1 1 20.324,5.403 2.162,2.162 0 0 1 20.325,1.08 Z"
     id="D2_A2_SDA_SS"
     inkscape:label="#path5806" />
  <path
     style="fill:#d0d0d0"
     d="M 46.929,1.08 A 2.162,2.162 0 1 1 46.928,5.403 2.162,2.162 0 0 1 46.929,1.08 Z"
     id="GND2"
     inkscape:label="#path5802" />
  <path
     style="fill:#d0d0d0"
     d="M 40.278,1.08 A 2.162,2.162 0 1 1 40.277,5.403 2.162,2.162 0 0 1 40.278,1.08 Z"
     id="D3_A3_SCL_SCK"
     inkscape:label="#path5798" />
  <path
     style="fill:#d0d0d0"
     d="M 33.627,1.08 A 2.162,2.162 0 1 1 33.626,5.403 2.162,2.162 0 0 1 33.627,1.08 Z"
     id="D0_A0_RX_MISO"
     inkscape:label="#path5794" />
  <path
     style="fill:#d0d0d0"
     d="M 26.976,1.08 A 2.162,2.162 0 1 1 26.975,5.403 2.162,2.162 0 0 1 26.976,1.08 Z"
     id="D1_A1_MOSI_TX"
     inkscape:label="JACK_TX" />
  <path
     style="fill:#d0d0d0"
     d="M 13.674,1.08 A 2.162,2.162 0 1 1 13.673,5.403 2.162,2.162 0 0 1 13.674,1.08 Z"
     id="VDD"
     inkscape:label="#path5786" />
  <path
     style="fill:#d0d0d0"
     d="m 20.325,41.404 a 2.1625005,2.1625005 0 1 1 -0.003,4.325 2.1625005,2.1625005 0 0 1 0.003,-4.325 z"
     id="SWDIO"
     inkscape:label="#path5831" />
  <path
     style="fill:#d0d0d0"
     d="m 46.929,41.404 a 2.1625005,2.1625005 0 1 1 -0.003,4.325 2.1625005,2.1625005 0 0 1 0.003,-4.325 z"
     id="VIN"
     inkscape:label="#path5827" />
  <path
     style="fill:#d0d0d0"
     d="m 40.278,41.404 a 2.1625005,2.1625005 0 1 1 -0.003,4.325 2.1625005,2.1625005 0 0 1 0.003,-4.325 z"
     id="GND"
     inkscape:label="#path5823" />
  <path
     style="fill:#d0d0d0"
     d="m 33.627,41.404 a 2.1625005,2.1625005 0 1 1 -0.003,4.325 2.1625005,2.1625005 0 0 1 0.003,-4.325 z"
     id="A5_D5"
     inkscape:label="#path5819" />
  <path
     style="fill:#d0d0d0"
     d="m 26.976,41.404 a 2.1625005,2.1625005 0 1 1 -0.003,4.325 2.1625005,2.1625005 0 0 1 0.003,-4.325 z"
     id="A4_D4"
     inkscape:label="#path5815" />
  <path
     style="fill:#d0d0d0"
     d="m 13.674,41.404 a 2.1625005,2.1625005 0 1 1 -0.003,4.325 2.1625005,2.1625005 0 0 1 0.003,-4.325 z"
     id="SWCLK"
     inkscape:label="#path5811" />
  <path
     d="M2.597 3.056a1.328 1.328 0 0 1-.79-1.219c0-.732.584-1.326 1.303-1.326.615 0 1.131.435 1.267 1.019a4.348 4.348 0 0 1 1.784-.38c2.299 0 4.166 1.771 4.166 3.952S8.46 9.054 6.161 9.054a4.343 4.343 0 0 1-1.776-.376A1.304 1.304 0 0 1 3.18 9.5a1.314 1.314 0 0 1-1.302-1.326c0-.488.259-.915.645-1.145a3.78 3.78 0 0 1 .074-3.973zm4.022.486c.027-.002.054-.003.082-.003.68 0 1.232.631 1.232 1.408 0 .777-.552 1.408-1.232 1.408-.028 0-.055-.001-.082-.003v-2.81z"
     fill="#feffff"
     id="path5230" />
</svg>

<svg viewBox="0 0 55 47" xmlns="http://www.w3.org/2000/svg" fill-rule="evenodd" clip-rule="evenodd" stroke-linejoin="round" stroke-miterlimit="1.414"><path d="M52.63 0A2.361 2.361 0 0 1 55 2.35v42.3A2.361 2.361 0 0 1 52.63 47H2.37A2.361 2.361 0 0 1 0 44.65V2.35A2.361 2.361 0 0 1 2.37 0h50.26zM40.608 42.321c.665 0 1.205.553 1.205 1.234 0 .681-.54 1.234-1.205 1.234-.666 0-1.206-.553-1.206-1.234 0-.681.54-1.234 1.206-1.234zm-6.783 0c.666 0 1.206.553 1.206 1.234 0 .681-.54 1.234-1.206 1.234-.665 0-1.205-.553-1.205-1.234 0-.681.54-1.234 1.205-1.234zm-6.782 0c.665 0 1.206.553 1.206 1.234 0 .681-.541 1.234-1.206 1.234-.666 0-1.206-.553-1.206-1.234 0-.681.54-1.234 1.206-1.234zm-6.783 0c.666 0 1.206.553 1.206 1.234 0 .681-.54 1.234-1.206 1.234-.665 0-1.205-.553-1.205-1.234 0-.681.54-1.234 1.205-1.234zm-6.782 0c.665 0 1.206.553 1.206 1.234 0 .681-.541 1.234-1.206 1.234-.665 0-1.206-.553-1.206-1.234 0-.681.541-1.234 1.206-1.234zm33.912-.078c.666 0 1.206.553 1.206 1.235 0 .681-.54 1.234-1.206 1.234-.665 0-1.205-.553-1.205-1.234 0-.682.54-1.235 1.205-1.235zM40.725 2.085c.665 0 1.205.553 1.205 1.234 0 .681-.54 1.234-1.205 1.234-.666 0-1.206-.553-1.206-1.234 0-.681.54-1.234 1.206-1.234zm-6.783 0c.666 0 1.206.553 1.206 1.234 0 .681-.54 1.234-1.206 1.234-.665 0-1.205-.553-1.205-1.234 0-.681.54-1.234 1.205-1.234zm-6.782 0c.665 0 1.205.553 1.205 1.234 0 .681-.54 1.234-1.205 1.234-.666 0-1.206-.553-1.206-1.234 0-.681.54-1.234 1.206-1.234zm-6.783 0c.666 0 1.206.553 1.206 1.234 0 .681-.54 1.234-1.206 1.234-.665 0-1.205-.553-1.205-1.234 0-.681.54-1.234 1.205-1.234zm-6.782 0c.665 0 1.206.553 1.206 1.234 0 .681-.541 1.234-1.206 1.234-.665 0-1.206-.553-1.206-1.234 0-.681.541-1.234 1.206-1.234zm33.912-.078c.666 0 1.206.553 1.206 1.234 0 .682-.54 1.235-1.206 1.235-.665 0-1.205-.553-1.205-1.235 0-.681.54-1.234 1.205-1.234z" fill="#e52824"/><path fill="#c11a12" d="M0 10.134h48.091v26.733H0z"/><path fill="#fdfdfd" d="M6.78 12.472h38.958v22.233H6.78zM1.385 15.438h4.178v19.023H1.385z"/><path fill="#ffcfae" d="M1.385 16.87h4.178v4.6H1.385z"/><g fill="#fdfdfd"><path d="M40.721 9.348h1.239v1.381h-1.239zM38.896 9.348h1.239v1.381h-1.239zM37.07 9.348h1.239v1.381H37.07zM35.244 9.348h1.239v1.381h-1.239zM33.419 9.348h1.239v1.381h-1.239zM31.593 9.348h1.239v1.381h-1.239zM29.768 9.348h1.239v1.381h-1.239zM27.942 9.348h1.239v1.381h-1.239zM26.116 9.348h1.239v1.381h-1.239zM24.291 9.348h1.239v1.381h-1.239zM22.465 9.348h1.239v1.381h-1.239zM20.64 9.348h1.239v1.381H20.64zM18.814 9.348h1.239v1.381h-1.239zM16.989 9.348h1.239v1.381h-1.239zM15.163 9.348h1.239v1.381h-1.239zM13.337 9.348h1.239v1.381h-1.239zM11.512 9.348h1.239v1.381h-1.239zM44.372 9.348h1.239v1.381h-1.239zM42.547 9.348h1.239v1.381h-1.239z"/></g><g fill="#fdfdfd"><path d="M40.721 36.105h1.239v1.381h-1.239zM38.896 36.105h1.239v1.381h-1.239zM37.07 36.105h1.239v1.381H37.07zM35.244 36.105h1.239v1.381h-1.239zM33.419 36.105h1.239v1.381h-1.239zM31.593 36.105h1.239v1.381h-1.239zM29.768 36.105h1.239v1.381h-1.239zM27.942 36.105h1.239v1.381h-1.239zM26.116 36.105h1.239v1.381h-1.239zM24.291 36.105h1.239v1.381h-1.239zM22.465 36.105h1.239v1.381h-1.239zM20.64 36.105h1.239v1.381H20.64zM18.814 36.105h1.239v1.381h-1.239zM16.989 36.105h1.239v1.381h-1.239zM15.163 36.105h1.239v1.381h-1.239zM13.337 36.105h1.239v1.381h-1.239zM11.512 36.105h1.239v1.381h-1.239zM44.372 36.105h1.239v1.381h-1.239zM42.547 36.105h1.239v1.381h-1.239z"/></g><g fill="#fdfdfd"><path d="M47.304 15.586v1.239h1.382v-1.239h-1.382zM47.304 17.411v1.239h1.382v-1.239h-1.382zM47.304 19.237v1.239h1.382v-1.239h-1.382zM47.304 21.063v1.239h1.382v-1.239h-1.382zM47.304 22.888v1.239h1.382v-1.239h-1.382zM47.304 24.714v1.239h1.382v-1.239h-1.382zM47.304 26.539v1.239h1.382v-1.239h-1.382zM47.304 28.365v1.239h1.382v-1.239h-1.382zM47.304 30.19v1.239h1.382V30.19h-1.382zM47.304 32.016v1.239h1.382v-1.239h-1.382zM47.304 33.842v1.239h1.382v-1.239h-1.382zM47.304 11.935v1.239h1.382v-1.239h-1.382zM47.304 13.76v1.239h1.382V13.76h-1.382z"/></g><path fill="#c11a12" d="M50.649 6.332h1.549v3.849h-1.549z"/><path d="M52.093 7.088v2.336a.171.171 0 0 1-.171.172h-.997a.172.172 0 0 1-.171-.172V7.088c0-.094.077-.171.171-.171h.997c.094 0 .171.077.171.171z" fill="#dcdcdc" fill-rule="nonzero"/><g fill="#d0d0d0"><path d="M20.325 1.08a2.162 2.162 0 1 1-.001 4.323 2.162 2.162 0 0 1 .001-4.323zm0 1.536a.626.626 0 1 1 0 1.252.626.626 0 0 1 0-1.252zM46.929 1.08a2.162 2.162 0 1 1-.001 4.323 2.162 2.162 0 0 1 .001-4.323zm0 1.536a.626.626 0 1 1 0 1.252.626.626 0 0 1 0-1.252zM40.278 1.08a2.162 2.162 0 1 1-.001 4.323 2.162 2.162 0 0 1 .001-4.323zm0 1.536a.626.626 0 1 1 0 1.252.626.626 0 0 1 0-1.252zM33.627 1.08a2.162 2.162 0 1 1-.001 4.323 2.162 2.162 0 0 1 .001-4.323zm0 1.536a.626.626 0 1 1 0 1.252.626.626 0 0 1 0-1.252zM26.976 1.08a2.162 2.162 0 1 1-.001 4.323 2.162 2.162 0 0 1 .001-4.323zm0 1.536a.626.626 0 1 1 0 1.252.626.626 0 0 1 0-1.252zM13.674 1.08a2.162 2.162 0 1 1-.001 4.323 2.162 2.162 0 0 1 .001-4.323zm0 1.536a.626.626 0 1 1 0 1.252.626.626 0 0 1 0-1.252z"/></g><g fill="#d0d0d0"><path d="M20.325 41.404a2.162 2.162 0 1 1-.003 4.325 2.162 2.162 0 0 1 .003-4.325zm0 1.536a.627.627 0 1 1-.002 1.254.627.627 0 0 1 .002-1.254zM46.929 41.404a2.162 2.162 0 1 1-.003 4.325 2.162 2.162 0 0 1 .003-4.325zm0 1.536a.627.627 0 1 1-.002 1.254.627.627 0 0 1 .002-1.254zM40.278 41.404a2.162 2.162 0 1 1-.003 4.325 2.162 2.162 0 0 1 .003-4.325zm0 1.536a.627.627 0 1 1-.002 1.254.627.627 0 0 1 .002-1.254zM33.627 41.404a2.162 2.162 0 1 1-.003 4.325 2.162 2.162 0 0 1 .003-4.325zm0 1.536a.627.627 0 1 1-.002 1.254.627.627 0 0 1 .002-1.254zM26.976 41.404a2.162 2.162 0 1 1-.003 4.325 2.162 2.162 0 0 1 .003-4.325zm0 1.536a.627.627 0 1 1-.002 1.254.627.627 0 0 1 .002-1.254zM13.674 41.404a2.162 2.162 0 1 1-.003 4.325 2.162 2.162 0 0 1 .003-4.325zm0 1.536a.627.627 0 1 1-.002 1.254.627.627 0 0 1 .002-1.254z"/></g><path d="M2.597 3.056a1.328 1.328 0 0 1-.79-1.219c0-.732.584-1.326 1.303-1.326.615 0 1.131.435 1.267 1.019a4.348 4.348 0 0 1 1.784-.38c2.299 0 4.166 1.771 4.166 3.952S8.46 9.054 6.161 9.054a4.343 4.343 0 0 1-1.776-.376A1.304 1.304 0 0 1 3.18 9.5a1.314 1.314 0 0 1-1.302-1.326c0-.488.259-.915.645-1.145a3.78 3.78 0 0 1 .074-3.973zm4.022.486c.027-.002.054-.003.082-.003.68 0 1.232.631 1.232 1.408 0 .777-.552 1.408-1.232 1.408-.028 0-.055-.001-.082-.003v-2.81z" fill="#feffff"/></svg>
